src/lib/packages/icons/src/assets/line/cabinet-filing.svg

<svg xmlns="http://www.w3.org/2000/svg" width="24" height="24" fill="none"><path fill="currentColor" d="M18 2.25H6C3.582 2.25 2.25 3.582 2.25 6v12c0 2.418 1.332 3.75 3.75 3.75h12c2.418 0 3.75-1.332 3.75-3.75V6c0-2.418-1.332-3.75-3.75-3.75ZM6 3.75h12c1.577 0 2.25.673 2.25 2.25v5.25H3.75V6c0-1.577.673-2.25 2.25-2.25Zm12 16.5H6c-1.577 0-2.25-.673-2.25-2.25v-5.25h16.5V18c0 1.577-.673 2.25-2.25 2.25ZM10.75 8a1.25 1.25 0 1 1 2.5 0 1.25 1.25 0 0 1-2.5 0Zm2.5 8a1.25 1.25 0 1 1-2.5 0 1.25 1.25 0 0 1 2.5 0Z"/></svg>

<svg width="24" height="24" viewBox="0 0 24 24" fill="none" xmlns="http://www.w3.org/2000/svg">
<path d="M18 2.25H6C3.582 2.25 2.25 3.582 2.25 6V18C2.25 20.418 3.582 21.75 6 21.75H18C20.418 21.75 21.75 20.418 21.75 18V6C21.75 3.582 20.418 2.25 18 2.25ZM6 3.75H18C19.577 3.75 20.25 4.423 20.25 6V11.25H3.75V6C3.75 4.423 4.423 3.75 6 3.75ZM18 20.25H6C4.423 20.25 3.75 19.577 3.75 18V12.75H20.25V18C20.25 19.577 19.577 20.25 18 20.25ZM10.75 8C10.75 7.31 11.31 6.75 12 6.75C12.69 6.75 13.25 7.31 13.25 8C13.25 8.69 12.69 9.25 12 9.25C11.31 9.25 10.75 8.69 10.75 8ZM13.25 16C13.25 16.69 12.69 17.25 12 17.25C11.31 17.25 10.75 16.69 10.75 16C10.75 15.31 11.31 14.75 12 14.75C12.69 14.75 13.25 15.31 13.25 16Z" fill="currentColor"/>
</svg>
